X: 741
T: A Kiss for Nothing
R: slip-jig
B: Robert Bremner "A Collection of Scots Reels or Country Dances" 1757 p.74 #1
S: http://imslp.org/wiki/A_Collection_of_Scots_Reels_or_Country_Dances_(Bremner,_Robert)
Z: 2013 John Chambers <jc:trillian.mit.edu>
N: There is no key signature, but the tune is clearly in F major; it contains no Bs at all.
M: 9/8
L: 1/8
K: F
% - - - - - - - - - - - - - - - - - - - - - - - - -
V: 1
|:\
F2c A2c d2f | F2c cAF GEC |\
FAc cAc d2f | agf cAF G2A :|
|:\
(f/g/a)g fcf Acf | fcf Aca g2(f/e/) |\
fce fga cde | fac dfF G2A :|
% - - - - - - - - - - - - - - - - - - - - - - - - -
V: 2 clef=bass middle=d
|:\
f3 f3 f3 | f3 c'3 c3 |\
f3 f3 f3 | f3 f3 g3 :|
|:\
f3 f3 f3 | f3 f3 g3 |\
f3 f3 f3 | f3 f3 g3 :|
% - - - - - - - - - - - - - - - - - - - - - - - - -

%%sep 1 1 500
%%sep 1 1 500
